icons/svg/bookmark-add.svg

<svg width="24" height="24" viewBox="0 0 24 24" fill="none" xmlns="http://www.w3.org/2000/svg">
<path fill-rule="evenodd" clip-rule="evenodd" d="M17.5 12C20.5376 12 23 9.53757 23 6.5C23 3.46243 20.5376 1 17.5 1C14.4624 1 12 3.46243 12 6.5C12 9.53757 14.4624 12 17.5 12ZM17.5 3.00659C17.7761 3.00659 18 3.23045 18 3.50659V6.00006H20.4934C20.7696 6.00006 20.9934 6.22392 20.9934 6.50006C20.9934 6.7762 20.7696 7.00006 20.4934 7.00006H18V9.49343C18 9.76958 17.7761 9.99343 17.5 9.99343C17.2239 9.99343 17 9.76958 17 9.49343V7.00006H14.5066C14.2304 7.00006 14.0066 6.7762 14.0066 6.50006C14.0066 6.22392 14.2304 6.00006 14.5066 6.00006H17V3.50659C17 3.23045 17.2239 3.00659 17.5 3.00659Z" fill="currentColor"/>
<path d="M10.25 3.25H7.92102C5.98802 3.25 4.42102 4.817 4.42102 6.75V19.7503C4.42102 20.5851 5.38352 21.0524 6.03952 20.5361L11.3815 16.3314C11.7444 16.0458 12.2556 16.0458 12.6185 16.3314L17.9605 20.5361C18.6165 21.0524 19.579 20.5851 19.579 19.7503V13.75" stroke="currentColor" stroke-width="1.5" stroke-linecap="round" stroke-linejoin="round"/>
</svg>

<svg xmlns="http://www.w3.org/2000/svg" width="24" height="24" fill="none" viewBox="0 0 24 24"><path fill="currentColor" fill-rule="evenodd" d="M17.5 12a5.5 5.5 0 1 0 0-11 5.5 5.5 0 0 0 0 11m0-8.993a.5.5 0 0 1 .5.5V6h2.493a.5.5 0 1 1 0 1H18v2.493a.5.5 0 0 1-1 0V7h-2.493a.5.5 0 1 1 0-1H17V3.507a.5.5 0 0 1 .5-.5" clip-rule="evenodd"/><path stroke="currentColor" stroke-linecap="round" stroke-linejoin="round" stroke-width="1.5" d="M10.25 3.25H7.921a3.5 3.5 0 0 0-3.5 3.5v13a1 1 0 0 0 1.619.786l5.342-4.205a1 1 0 0 1 1.236 0l5.342 4.205a1 1 0 0 0 1.619-.786v-6"/></svg>
